!!!COM: Marenzio, Luca
!!!CDT:
!!!PTL: Il secondo libro de madrigali a sei voci
!!!PPP: Venice
!!!PPR: Angelo Gardano
!!!PDT: 1584
!!!PUB-format:
!!!RISM: M 504
!!!rime: 248
!!!OTL: Vita de la mia vita
!!!AGN: Madrigal
!!!SCT: Trm0248a
!!!SCA: Trm0248a
!!!original-voices: 6
!!!extant-voices: 6
!!!complete: Y
!!!final: F
**kern	**text	**kern	**text	**kern	**text	**kern	**text	**kern	**text	**kern	**text
*part6	*part6	*part5	*part5	*part4	*part4	*part3	*part3	*part2	*part2	*part1	*part1
*staff6	*staff6	*staff5	*staff5	*staff4	*staff4	*staff3	*staff3	*staff2	*staff2	*staff1	*staff1
*I"Basso	*	*I"Sesto	*	*I"Tenore	*	*I"Alto	*	*I"Quinto	*	*I"Canto	*
*I'B	*	*I'VI	*	*I'T	*	*I'A	*	*I'V	*	*I'C	*
*oclefF4	*	*oclefC4	*	*oclefC4	*	*oclefC3	*	*oclefC1	*	*oclefC1	*
*clefF4	*	*clefGv2	*	*clefGv2	*	*clefG2	*	*clefG2	*	*clefG2	*
*k[b-]	*	*k[b-]	*	*k[b-]	*	*k[b-]	*	*k[b-]	*	*k[b-]	*
*d:	*	*d:	*	*d:	*	*d:	*	*d:	*	*d:	*
*omet(C|)	*	*omet(C|)	*	*omet(C|)	*	*omet(C|)	*	*omet(C|)	*	*omet(C|)	*
*M2/2	*	*M2/2	*	*M2/2	*	*M2/2	*	*M2/2	*	*M2/2	*
=1	=1	=1	=1	=1	=1	=1	=1	=1	=1	=1	=1
1r	.	1r	.	2r	.	1r	.	1r	.	1cc	Vi-
.	.	.	.	[2c	Vi-	.	.	.	.	.	.
=2	=2	=2	=2	=2	=2	=2	=2	=2	=2	=2	=2
1F	Vi-	1A	Vi-	2c]	.	1f	Vi-	1cc	Vi-	1a	-ta,
.	.	.	.	2A	-ta,	.	.	.	.	.	.
=3	=3	=3	=3	=3	=3	=3	=3	=3	=3	=3	=3
1FF	-ta	2F	-ta	4r	.	2c	-ta	2a	-ta	4r	.
.	.	.	.	4.F	Vi-	.	.	.	.	4.cc	Vi-
.	.	2r	.	.	.	4r	.	4r	.	.	.
.	.	.	.	8F	-ta	.	.	.	.	8cc	-ta
.	.	.	.	4F	de	4c	de	4a	de	4cc	de
=4	=4	=4	=4	=4	=4	=4	=4	=4	=4	=4	=4
1r	.	1r	.	4G	la	4g	la	4b-y	la	4b-y	la
.	.	.	.	4A	mia	4e	mia	4cc	mia	4a	mia
.	.	.	.	2B-y	vi-	4.d	vi-	[2dd	vi-	2g	vi-
.	.	.	.	.	.	8e	.	.	.	.	.
=5	=5	=5	=5	=5	=5	=5	=5	=5	=5	=5	=5
1r	.	1r	.	1A	-ta,	2f	.	2dd]	.	1a	-ta,
.	.	.	.	.	.	2e	-ta,	2cc#X	-ta,	.	.
=6	=6	=6	=6	=6	=6	=6	=6	=6	=6	=6	=6
1r	.	1r	.	4D	Tu	4f	Tu	4r	.	4r	.
.	.	.	.	2G	mi	2d	mi	4dd	Tu	4b-y	Tu
.	.	.	.	.	.	.	.	4b-y	mi	4g	mi
.	.	.	.	4F	so-	4f	so-	4cc	so-	4a	so-
=7	=7	=7	=7	=7	=7	=7	=7	=7	=7	=7	=7
1r	.	1r	.	2B-y	-mi-	2.f	-mi-	2.dd	-mi-	2.b-y	-mi-
.	.	.	.	2d	-gli	.	.	.	.	.	.
.	.	.	.	.	.	4d	-gli	4a	-gli	4f	-gli
=8	=8	=8	=8	=8	=8	=8	=8	=8	=8	=8	=8
1r	.	1r	.	4.A	pal-	4.c#X	pal-	4.a	pal-	4.e	pal-
.	.	.	.	8A	-li-	8c#i	-li-	8a	-li-	8e	-li-
.	.	.	.	4A	-det-	4c#X	-det-	4a	-det-	4e	-det-
.	.	.	.	4B-y	-ta o-	4d	-ta o-	4g	-ta o-	4d	-ta o-
=9	=9	=9	=9	=9	=9	=9	=9	=9	=9	=9	=9
1r	.	2r	.	2A	-li-	2c#X	-li-	2a	-li-	2e	-li-
.	.	4r	.	2A	-va	2c#i	-va	4a	-va	2e	-va
.	.	4A	O	.	.	.	.	4e	O	.	.
=10	=10	=10	=10	=10	=10	=10	=10	=10	=10	=10	=10
1r	.	4.d	ro-	1r	.	2r	.	4.f	ro-	1r	.
.	.	16cL	.	.	.	.	.	16eL	.	.	.
.	.	16B-yJ	.	.	.	.	.	16dJ	.	.	.
.	.	2c	.	.	.	4r	.	2e	.	.	.
.	.	.	.	.	.	4e	O	.	.	.	.
=11	=11	=11	=11	=11	=11	=11	=11	=11	=11	=11	=11
1r	.	2d	-sa	1r	.	4.a	ro-	2f	-sa,	4r	.
.	.	.	.	.	.	.	.	.	.	4a	O
.	.	.	.	.	.	16gL	.	.	.	.	.
.	.	.	.	.	.	16fJ	.	.	.	.	.
.	.	4B-y	sco-	.	.	2g	.	4d	O	4.dd	ro-
.	.	4B-y	-lo-	.	.	.	.	[4g	ro-	.	.
.	.	.	.	.	.	.	.	.	.	16ccL	.
.	.	.	.	.	.	.	.	.	.	16b-yJ	.
=12	=12	=12	=12	=12	=12	=12	=12	=12	=12	=12	=12
1r	.	2A	-ri-	4r	.	2a	-sa,	8g]L	.	2cc	.
.	.	.	.	.	.	.	.	16f	.	.	.
.	.	.	.	.	.	.	.	16eJ	.	.	.
.	.	.	.	4A	O	.	.	4f#X	.	.	.
.	.	2G	-ta,	4.d	ro-	4r	.	4.g	-sa,	4.b-y	-sa,
.	.	.	.	.	.	4d	O	.	.	.	.
.	.	.	.	16cL	.	.	.	8fnXi	.	8a	.
.	.	.	.	16B-yJ	.	.	.	.	.	.	.
=13	=13	=13	=13	=13	=13	=13	=13	=13	=13	=13	=13
1r	.	2r	.	2c	.	4.g	ro-	2e	.	4g	.
.	.	.	.	.	.	.	.	.	.	4e	O
.	.	.	.	.	.	16fL	.	.	.	.	.
.	.	.	.	.	.	16eJ	.	.	.	.	.
.	.	4r	.	2d	-sa	2f	.	4r	.	4.a	ro-
.	.	4d	O	.	.	.	.	4a	O	.	.
.	.	.	.	.	.	.	.	.	.	16gL	.
.	.	.	.	.	.	.	.	.	.	16fJ	.
=14	=14	=14	=14	=14	=14	=14	=14	=14	=14	=14	=14
1r	.	4.B-y	ro-	4G	sco-	2d	-sa	4.dd	ro-	4g	.
.	.	.	.	4B-y	-lo-	.	.	.	.	4f	-sa
.	.	16AL	.	.	.	.	.	16ccL	.	.	.
.	.	16GJ	.	.	.	.	.	16b-yJ	.	.	.
.	.	2A	.	2F	-ri-	4r	.	2cc	.	4.f	sco-
.	.	.	.	.	.	[4f	sco-	.	.	.	.
.	.	.	.	.	.	.	.	.	.	8e	.
=15	=15	=15	=15	=15	=15	=15	=15	=15	=15	=15	=15
1r	.	2B-y	-sa	2f	-ta;	4f]	.	2dd	-sa	4d	.
.	.	.	.	.	.	2d	-lo-	.	.	4f	-lo-
.	.	4G	sco-	2r	.	.	.	4b-y	sco-	8gL	-ri-
.	.	.	.	.	.	.	.	.	.	8f	.
.	.	4G	-lo-	.	.	[4g	-ri-	4b-y	-lo-	8e	.
.	.	.	.	.	.	.	.	.	.	8dJ	.
=16	=16	=16	=16	=16	=16	=16	=16	=16	=16	=16	=16
1r	.	1A	-ri-	1r	.	8g]L	.	1a	-ri-	4c#X	.
.	.	.	.	.	.	8f	.	.	.	.	.
.	.	.	.	.	.	8f	.	.	.	2d	.
.	.	.	.	.	.	16e	.	.	.	.	.
.	.	.	.	.	.	16dJ	.	.	.	.	.
.	.	.	.	.	.	2e	.	.	.	.	.
.	.	.	.	.	.	.	.	.	.	4c#X	.
=17	=17	=17	=17	=17	=17	=17	=17	=17	=17	=17	=17
2r	.	1D	-ta;	2r	.	1f	-ta;	1a	-ta;	1d	-ta;
2D	Né	.	.	2d	Né	.	.	.	.	.	.
=18	=18	=18	=18	=18	=18	=18	=18	=18	=18	=18	=18
4A	di	1r	.	4c	di	1r	.	1r	.	1r	.
4F	bel-	.	.	4A	bel-	.	.	.	.	.	.
4G	-ta	.	.	4B-y	-tà	.	.	.	.	.	.
4A	sei	.	.	4c	sei	.	.	.	.	.	.
=19	=19	=19	=19	=19	=19	=19	=19	=19	=19	=19	=19
2B-y	pri-	1r	.	2d	pri-	4r	.	4r	.	4r	.
.	.	.	.	.	.	4B-y	Né	4d	Né	4dd	Né
2F	-va,	.	.	2A	-va,	4.f	di	4a	di	4cc	di
.	.	.	.	.	.	.	.	4f	bel-	4a	bel-
.	.	.	.	.	.	8f	bel-	.	.	.	.
=20	=20	=20	=20	=20	=20	=20	=20	=20	=20	=20	=20
2r	.	2r	.	2r	.	4e-X	-tà	4g	-tà	4b-y	-tà
.	.	.	.	.	.	4c	sei	4a	sei	4cc	sei
4r	.	4r	.	4r	.	2B-y	pri-	2b-y	pri-	2dd	pri-
4BB-y	Né	4d	Né	4B-y	<Né	.	.	.	.	.	.
=21	=21	=21	=21	=21	=21	=21	=21	=21	=21	=21	=21
4.F	di	4c	di	4A	di	2c	-va,	2f	-va,	2a	-va,
.	.	4A	bel-	4F	bel-	.	.	.	.	.	.
8F	bel-	.	.	.	.	.	.	.	.	.	.
4E-X	-tà	4B-y	-tà	4G	-tà	2r	.	2r	.	2r	.
4C	sei	4c	sei	4A	sei	.	.	.	.	.	.
=22	=22	=22	=22	=22	=22	=22	=22	=22	=22	=22	=22
2BB-y	pri-	2d	pri-	2B-y	pri-	2r	.	1r	.	1r	.
2FF	-va,	[2c	-va,	2A	-va,>	[2f	Ma in	.	.	.	.
=23	=23	=23	=23	=23	=23	=23	=23	=23	=23	=23	=23
1C	Ma in	2c]	.	1c	Ma in	2f]	.	1g	Ma in	1cc	Ma in
.	.	2G	Ma in	.	.	2e	o-	.	.	.	.
=24	=24	=24	=24	=24	=24	=24	=24	=24	=24	=24	=24
2BBnX	o-	4D	o-	2G	o-	2d	-gni a-	2g	o-	2dd	o-
.	.	4d	-gni a-	.	.	.	.	.	.	.	.
2C	-gni a-	8cL	-spet-	2G	-gni a-	[2g	-spet-	2e	-gni a-	4eenX	-gni a-
.	.	8d	.	.	.	.	.	.	.	.	.
.	.	8e	.	.	.	.	.	.	.	[4cc	-spet-
.	.	8cJ	.	.	.	.	.	.	.	.	.
=25	=25	=25	=25	=25	=25	=25	=25	=25	=25	=25	=25
1GG	-spet-	1d	.	1G	-spet-	4g]	.	1g	-spet-	4cc]	.
.	.	.	.	.	.	8fL	.	.	.	8bnXL	.
.	.	.	.	.	.	8eJ	.	.	.	8aJ	.
.	.	.	.	.	.	2d	.	.	.	2bnX	.
=26	=26	=26	=26	=26	=26	=26	=26	=26	=26	=26	=26
2C	-to	1c	-to	1G	-to	2e	-to	2g	-to,	1cc	-to
4C	tu	.	.	.	.	4e	tu	2cc	<Ma in	.	.
4D	mi	.	.	.	.	4f	mi	.	.	.	.
=27	=27	=27	=27	=27	=27	=27	=27	=27	=27	=27	=27
4E	sei	2r	.	2r	.	4g	sei	2cc	o-	1r	.
4C	gra-	.	.	.	.	4e	gra-	.	.	.	.
2F	-di-	4c	tu	4A	tu	2a	-di-	2cc	-gni a-	.	.
.	.	4d	mi	4B-y	mi	.	.	.	.	.	.
=28	=28	=28	=28	=28	=28	=28	=28	=28	=28	=28	=28
2C	-ta,	4e	sei	4c	sei	2g	-ta,	1cc	-spet-	2r	.
.	.	4c	gra-	4G	gra-	.	.	.	.	.	.
4F	tu	2c	-di-	2A	-di-	2f	Ma in	.	.	4a	tu
4G	mi	.	.	.	.	.	.	.	.	4b-y	mi
=29	=29	=29	=29	=29	=29	=29	=29	=29	=29	=29	=29
4A	sei	2c	-ta,	2F	-ta,	2f	o-	2cc	-to>	4cc	sei
4F	gra-	.	.	.	.	.	.	.	.	4a	gra-
2B-y	-di-	2r	.	2r	.	2d	-gni a-	4f	tu	2dd	-di-
.	.	.	.	.	.	.	.	4g	mi	.	.
=30	=30	=30	=30	=30	=30	=30	=30	=30	=30	=30	=30
2F	-ta,	2r	.	2r	.	1f	-spet-	4a	sei	2cc	-ta,
.	.	.	.	.	.	.	.	4f	gra-	.	.
4BB-y	tu	4d	<tu	2B-y	Ma in	.	.	2b-y	-di-	2r	.
4C	mi	4e	mi	.	.	.	.	.	.	.	.
=31	=31	=31	=31	=31	=31	=31	=31	=31	=31	=31	=31
4D	sei	4f	sei	2B-y	o-	2d	-to	2f	-ta,	1b-y	Ma in
4BB-y	gra-	4d	gra-	.	.	.	.	.	.	.	.
2E-X	-di-	2e-X	-di-	2G	-gni a-	4B-y	tu	2r	.	.	.
.	.	.	.	.	.	4c	mi	.	.	.	.
=32	=32	=32	=32	=32	=32	=32	=32	=32	=32	=32	=32
2BB-y	-ta,	2f	-ta,>	2B-y	-spet-	4d	sei	2r	.	2b-y	o-
.	.	.	.	.	.	4B-y	gra-	.	.	.	.
2B-y	Ma in	2r	.	2E-X	-to	2e-X	-di-	4b-y	tu	2g	-gni a-
.	.	.	.	.	.	.	.	4cc	mi	.	.
=33	=33	=33	=33	=33	=33	=33	=33	=33	=33	=33	=33
2B-y	o-	4d	tu	4B-y	tu	1f	-ta,	1dd	sei	2b-y	-spet-
.	.	4e	mi	4c	mi	.	.	.	.	.	.
2B-y	-gni a-	2f	sei,	4d	sei	.	.	.	.	2b-y	-to
.	.	.	.	4B-y	gra-	.	.	.	.	.	.
=34	=34	=34	=34	=34	=34	=34	=34	=34	=34	=34	=34
2E-X	-spet-	1r	.	2e-X	-di-	2r	.	4g	gra-	4b-y	tu
.	.	.	.	.	.	.	.	4a	-di-	4cc	mi
2BB-y	-to,	.	.	2f	-ta,	4d	tu	4b-y	.	4dd	sei
.	.	.	.	.	.	4f	mi	4dd	.	4b-y	gra-
=35	=35	=35	=35	=35	=35	=35	=35	=35	=35	=35	=35
1r	.	1r	.	1r	.	2e-X	sei	4cc	.	2.ee-X	-di-
.	.	.	.	.	.	.	.	4b-y	.	.	.
.	.	.	.	.	.	2e-i	gra-	[2b-y	.	.	.
.	.	.	.	.	.	.	.	.	.	4dd	.
=36	=36	=36	=36	=36	=36	=36	=36	=36	=36	=36	=36
1r	.	1r	.	1r	.	1f	-di-	4b-y]	.	1cc	.
.	.	.	.	.	.	.	.	8aL	.	.	.
.	.	.	.	.	.	.	.	8gJ	.	.	.
.	.	.	.	.	.	.	.	2a	.	.	.
=37	=37	=37	=37	=37	=37	=37	=37	=37	=37	=37	=37
1r	.	2r	.	2r	.	1B-y	-ta,	2b-y	-ta,	2dd	-ta,
.	.	[2B-y	O	[2f	O	.	.	[2dd	O	[2b-y	O
=38	=38	=38	=38	=38	=38	=38	=38	=38	=38	=38	=38
1r	.	2B-y]	.	2f]	.	1r	.	2dd]	.	2b-y]	.
.	.	4F	lu-	4f	lu-	.	.	4cc	lu-	4a	lu-
.	.	4G	-sin-	4d	-sin-	.	.	4b-y	-sin-	4g	-sin-
=39	=39	=39	=39	=39	=39	=39	=39	=39	=39	=39	=39
1r	.	2D	-ghe-	2d	-ghe-	2r	.	2a	-ghe-	2f#X	-ghe-
.	.	2D	-ra,	2d	-ra o	4r	.	4a	-ra o	2f#i	-ra
.	.	.	.	.	.	4d	o	[4b-y	schi-	.	.
=40	=40	=40	=40	=40	=40	=40	=40	=40	=40	=40	=40
1r	.	1r	.	4.c	schi-	4.e	schi-	8b-y]L	.	2r	.
.	.	.	.	.	.	.	.	8aJ	.	.	.
.	.	.	.	.	.	.	.	4.a	.	.	.
.	.	.	.	8A	.	8f	.	.	.	.	.
.	.	.	.	4.B-y	.	4d	.	.	.	4r	.
.	.	.	.	.	.	.	.	8g	.	.	.
.	.	.	.	.	.	4d	-va,	[4g	.	4dd	o
.	.	.	.	8G	.	.	.	.	.	.	.
=41	=41	=41	=41	=41	=41	=41	=41	=41	=41	=41	=41
1r	.	1r	.	4.A	.	1r	.	8g]L	.	4.cc	schi-
.	.	.	.	.	.	.	.	8fJ	.	.	.
.	.	.	.	.	.	.	.	2f	.	.	.
.	.	.	.	8B-y	.	.	.	.	.	16b-yL	.
.	.	.	.	.	.	.	.	.	.	16aJ	.
.	.	.	.	2c	.	.	.	.	.	2g	.
.	.	.	.	.	.	.	.	4e	.	.	.
=42	=42	=42	=42	=42	=42	=42	=42	=42	=42	=42	=42
2r	.	2r	.	1F	-va,	1r	.	[1f	-va,	8aL	-va,
.	.	.	.	.	.	.	.	.	.	8g	.
.	.	.	.	.	.	.	.	.	.	8a	.
.	.	.	.	.	.	.	.	.	.	8b-yJ	.
4F	tu	4A	tu	.	.	.	.	.	.	2cc	.
4G	mi	4B-y	mi	.	.	.	.	.	.	.	.
=43	=43	=43	=43	=43	=43	=43	=43	=43	=43	=43	=43
4A	sei	4c	sei	1r	.	1r	.	1f_	.	2r	.
4F	gra-	4A	gra-	.	.	.	.	.	.	.	.
2B-y	-di-	2d	-di-	.	.	.	.	.	.	4f	tu
.	.	.	.	.	.	.	.	.	.	4g	mi
=44	=44	=44	=44	=44	=44	=44	=44	=44	=44	=44	=44
2F	-ta,	2c	-ta,	2r	.	2r	.	1f]	.	4a	sei
.	.	.	.	.	.	.	.	.	.	4a	gra-
[2D	O	2r	.	2A	O	[2f	O	.	.	2dd	-di-
=45	=45	=45	=45	=45	=45	=45	=45	=45	=45	=45	=45
2D]	.	1r	.	2F	lu-	2f]	.	2r	.	[1a	-ta,
4C	lu-	.	.	2G	-sin-	4e	lu-	2c	O	.	.
4BB-y	-sin-	.	.	.	.	4d	-sin-	.	.	.	.
=46	=46	=46	=46	=46	=46	=46	=46	=46	=46	=46	=46
2AA	-ghe-	1r	.	2A	-ghe-	2c	-ghe-	2.e	lu-	1a]	.
2A	-ra o	.	.	2c	-ra o	4c	-ra o	.	.	.	.
.	.	.	.	.	.	[4f	schi-	4c	-sin-	.	.
=47	=47	=47	=47	=47	=47	=47	=47	=47	=47	=47	=47
4.G	schi-	1r	.	4.BnX	schi-	8f]L	.	2g	-ghe-	1r	.
.	.	.	.	.	.	8eJ	.	.	.	.	.
.	.	.	.	.	.	4.e	.	.	.	.	.
8E	.	.	.	8c	.	.	.	.	.	.	.
4.F	.	.	.	4.A	.	.	.	2a	-ra o	.	.
.	.	.	.	.	.	8d	.	.	.	.	.
.	.	.	.	.	.	[4d	.	.	.	.	.
8D	.	.	.	8F	.	.	.	.	.	.	.
=48	=48	=48	=48	=48	=48	=48	=48	=48	=48	=48	=48
4.E	.	1r	.	1G	.	8d]L	.	4.g	schi-	1r	.
.	.	.	.	.	.	8cJ	.	.	.	.	.
.	.	.	.	.	.	2c	.	.	.	.	.
8F	.	.	.	.	.	.	.	16fL	.	.	.
.	.	.	.	.	.	.	.	16eJ	.	.	.
2G	.	.	.	.	.	.	.	2d	.	.	.
.	.	.	.	.	.	4BnX	.	.	.	.	.
=49	=49	=49	=49	=49	=49	=49	=49	=49	=49	=49	=49
2C	-va;	1r	.	2G	-va;	2c	-va;	2e	-va;	4r	.
.	.	.	.	.	.	.	.	.	.	4cc	E
2r	.	.	.	2r	.	2r	.	4r	.	4b-y	se
.	.	.	.	.	.	.	.	4cc	E	4a	mi
=50	=50	=50	=50	=50	=50	=50	=50	=50	=50	=50	=50
1r	.	4r	.	1r	.	2r	.	4b-y	se	4g	se-
.	.	4f	E	.	.	.	.	4a	mi	4f	-gui
.	.	4e-X	se	.	.	4r	.	4g	se-	2r	.
.	.	4d	mi	.	.	4f	E	4f	-gui	.	.
=51	=51	=51	=51	=51	=51	=51	=51	=51	=51	=51	=51
2r	.	4c	se-	4r	.	4e-X	se	2r	.	4r	.
.	.	4B-y	-gui	4f	E	4d	mi	.	.	4b-y	o
4r	.	2r	.	4e-X	se	4c	se-	4r	.	4cc	fug-
4B-y	o	.	.	4d	mi	4B-y	-gui	4b-y	o	4dd	-gi,
=52	=52	=52	=52	=52	=52	=52	=52	=52	=52	=52	=52
4A	fug-	4r	.	4c	se-	4r	.	4cc	fug-	4r	.
4G	-gi,	4B-y	o	4B-y	-gui	4d	o	4dd	-gi,	4b-y	<o
2r	.	4A	fug-	4r	.	4c	fug-	4r	.	4cc	fug-
.	.	4G	-gi,	4B-y	o	4B-y	-gi,	4b-y	<o	4dd	-gi,>
=53	=53	=53	=53	=53	=53	=53	=53	=53	=53	=53	=53
4r	.	4r	.	4A	fug-	4r	.	4cc	fug-	4r	.
4G	o	4d	o	4G	-gi	4B-y	<o	4dd	-gi,>	4b-y	o
4A	fug-	4c	fug-	2r	.	4A	fug-	2r	.	4cc	fug-
4B-y	-gi	4B-y	-gi	.	.	4G	-gi>	.	.	4dd	-gi
=54	=54	=54	=54	=54	=54	=54	=54	=54	=54	=54	=54
1E-X	So-	1B-y	So-	1G	So-	1e-X	So-	1b-y	So-	1g	So-
=55	=55	=55	=55	=55	=55	=55	=55	=55	=55	=55	=55
[1BB-y	-a-	[1B-y	-a-	1D	-a-	[1d	-a-	[1b-y	-a-	[1f	-a-
=56	=56	=56	=56	=56	=56	=56	=56	=56	=56	=56	=56
2BB-y]	.	2B-y]	.	1D	-ve-	2d]	.	2b-y]	.	2f]	.
2D	-ve-	2F	-ve-	.	.	2d	-ve-	2a	-ve-	2f	-ve-
=57	=57	=57	=57	=57	=57	=57	=57	=57	=57	=57	=57
1AA	-men-	1A	-men-	1E	-men-	1c#X	-men-	1a	-men-	1e	-men-
=58	=58	=58	=58	=58	=58	=58	=58	=58	=58	=58	=58
1AA	-te	2.A	-te	1E	-te	1c#i	-te	[1a	-te	[1e	-te
.	.	4B-	.	.	.	.	.	.	.	.	.
=59	=59	=59	=59	=59	=59	=59	=59	=59	=59	=59	=59
1r	.	1c	.	[1A	mi	1r	.	1a]	.	1e]	.
=60	=60	=60	=60	=60	=60	=60	=60	=60	=60	=60	=60
1r	.	1r	.	2A]	.	[1a	mi	2.ff	mi	1r	.
.	.	.	.	2B-y	con-	.	.	.	.	.	.
.	.	.	.	.	.	.	.	4dd	con-	.	.
=61	=61	=61	=61	=61	=61	=61	=61	=61	=61	=61	=61
1r	.	1r	.	2c	-su-	2a]	.	2cc	-su-	2e	mi
.	.	.	.	2d	-mi e	2f	con-	2bnX	-mi e	2f	con-
=62	=62	=62	=62	=62	=62	=62	=62	=62	=62	=62	=62
1r	.	1r	.	[1c	strug-	2e	-su-	[1cc	strug-	2g	-su-
.	.	.	.	.	.	[2f	-mi e	.	.	2a	-mi e
=63	=63	=63	=63	=63	=63	=63	=63	=63	=63	=63	=63
1r	.	1r	.	1c]	.	2f]	.	1cc]	.	1g	strug-
.	.	.	.	.	.	2e	strug-	.	.	.	.
=64	=64	=64	=64	=64	=64	=64	=64	=64	=64	=64	=64
2r	.	2r	.	[1F	-gi,	2f	-gi,	1cc	-gi,	1a	-gi,
[2F	mi	[2A	mi	.	.	[2c	mi	.	.	.	.
=65	=65	=65	=65	=65	=65	=65	=65	=65	=65	=65	=65
2F]	.	2A]	.	1F]	.	2c]	.	1r	.	1r	.
2D	con-	2B-y	con-	.	.	2d	con-	.	.	.	.
=66	=66	=66	=66	=66	=66	=66	=66	=66	=66	=66	=66
2C	-su-	2c	-su-	1r	.	2e	-su-	1g	mi	1r	.
2BBnX	-mi e	2d	-mi e	.	.	2g	-mi e	.	.	.	.
=67	=67	=67	=67	=67	=67	=67	=67	=67	=67	=67	=67
[1C	strug-	[1c	strug-	2r	.	2g	strug-	2e	con-	2r	.
.	.	.	.	[2E	mi	2e	-gi,	[2g	-su-	[2cc	mi
=68	=68	=68	=68	=68	=68	=68	=68	=68	=68	=68	=68
1C_	.	1c_	.	2E]	.	2g	mi	2g]	.	2cc]	.
.	.	.	.	2F	con-	2f	con-	2cc	-mi e	2a	con-
=69	=69	=69	=69	=69	=69	=69	=69	=69	=69	=69	=69
1C_	.	1c_	.	2G	-su-	2e	-su-	[1cc	strug-	2g	-su-
.	.	.	.	2A	-mi e	[2f	-mi e	.	.	2f	-mi e
=70	=70	=70	=70	=70	=70	=70	=70	=70	=70	=70	=70
1C]	.	1c]	.	1G	strug-	2f]	.	1cc]	.	1g	strug-
.	.	.	.	.	.	2e	strug-	.	.	.	.
=71	=71	=71	=71	=71	=71	=71	=71	=71	=71	=71	=71
2FF	-gi,	2c	-gi,	2F	-gi,	2f	-gi,	[2cc	-gi,	4a	-gi,
.	.	.	.	.	.	.	.	.	.	4cc	E
2r	.	2r	.	2r	.	2r	.	4r	.	4b-y	se
.	.	.	.	.	.	.	.	4cc]	E	4a	mi
=72	=72	=72	=72	=72	=72	=72	=72	=72	=72	=72	=72
1r	.	4r	.	1r	.	2r	.	4b-y	se	4g	se-
.	.	4f	E	.	.	.	.	4a	mi	4f	-gui
.	.	4e-X	se	.	.	4r	.	4g	se-	2r	.
.	.	4d	mi	.	.	4f	E	4f	-gui	.	.
=73	=73	=73	=73	=73	=73	=73	=73	=73	=73	=73	=73
2r	.	4c	se-	4r	.	4e-X	se	2r	.	4r	.
.	.	4B-y	-gui	4f	E	4d	mi	.	.	4b-y	o
4r	.	2r	.	4e-X	se	4c	se-	4r	.	4cc	fug-
4B-y	o	.	.	4d	mi	4B-y	-gui	4b-	o	4dd	-gi,
=74	=74	=74	=74	=74	=74	=74	=74	=74	=74	=74	=74
4A	fug-	4r	.	4c	se-	4r	.	4cc	fug-	4r	.
4G	-gi,	4B-y	o	4B-y	-gui	4d	o	4dd	-gi,	4b-y	<o
2r	.	4A	fug-	4r	.	4c	fug-	4r	.	4cc	fug-
.	.	4G	-gi,	4B-y	o	4B-y	-gi,	4b-y	<o	4dd	-gi,>
=75	=75	=75	=75	=75	=75	=75	=75	=75	=75	=75	=75
4r	.	4r	.	4A	fug-	4r	.	4cc	fug-	4r	.
4G	o	4d	o	4G	-gi	4B-y	<o	4dd	-gi>	4b-y	o
4A	fug-	4c	fug-	2r	.	4A	fug-	2r	.	4cc	fug-
4B-y	-gi	4B-y	-gi	.	.	4G	-gi>	.	.	4dd	-gi
=76	=76	=76	=76	=76	=76	=76	=76	=76	=76	=76	=76
1E-X	So-	1B-y	So-	1G	So-	1e-X	So-	1b-y	So-	1g	So-
=77	=77	=77	=77	=77	=77	=77	=77	=77	=77	=77	=77
[1BB-y	-a-	[1B-y	-a-	1D	-a-	[1d	-a-	[1b-y	-a-	[1f	-a-
=78	=78	=78	=78	=78	=78	=78	=78	=78	=78	=78	=78
2BB-y]	.	2B-y]	.	1D	-ve-	2d]	.	2b-y]	.	2f]	.
2D	-ve-	2F	-ve-	.	.	2d	-ve-	2a	-ve-	2f	-ve-
=79	=79	=79	=79	=79	=79	=79	=79	=79	=79	=79	=79
1AA	-men-	1A	-men-	1E	-men-	1c#X	-men-	1a	-men-	1e	-men-
=80	=80	=80	=80	=80	=80	=80	=80	=80	=80	=80	=80
1AA	-te	2.A	-te	1E	-te	1c#i	-te	[1a	-te	[1e	-te
.	.	4B-	.	.	.	.	.	.	.	.	.
=81	=81	=81	=81	=81	=81	=81	=81	=81	=81	=81	=81
1r	.	1c	.	[1A	mi	1r	.	1a]	.	1e]	.
=82	=82	=82	=82	=82	=82	=82	=82	=82	=82	=82	=82
1r	.	1r	.	2A]	.	[1a	mi	2.ff	mi	1r	.
.	.	.	.	2B-y	con-	.	.	.	.	.	.
.	.	.	.	.	.	.	.	4dd	con-	.	.
=83	=83	=83	=83	=83	=83	=83	=83	=83	=83	=83	=83
1r	.	1r	.	2c	-su-	2a]	.	2cc	-su-	2e	mi
.	.	.	.	2d	-mi e	2f	con-	2bnX	-mi e	2f	con-
=84	=84	=84	=84	=84	=84	=84	=84	=84	=84	=84	=84
1r	.	1r	.	[1c	strug-	2e	-su-	[1cc	strug-	2g	-su-
.	.	.	.	.	.	[2f	-mi e	.	.	2a	-mi e
=85	=85	=85	=85	=85	=85	=85	=85	=85	=85	=85	=85
1r	.	1r	.	1c]	.	2f]	.	1cc]	.	1g	strug-
.	.	.	.	.	.	2e	strug-	.	.	.	.
=86	=86	=86	=86	=86	=86	=86	=86	=86	=86	=86	=86
2r	.	2r	.	[1F	-gi,	2f	-gi,	1cc	-gi,	1a	-gi,
[2F	mi	[2A	mi	.	.	[2c	mi	.	.	.	.
=87	=87	=87	=87	=87	=87	=87	=87	=87	=87	=87	=87
2F]	.	2A]	.	1F]	.	2c]	.	1r	.	1r	.
2D	con-	2B-y	con-	.	.	2d	con-	.	.	.	.
=88	=88	=88	=88	=88	=88	=88	=88	=88	=88	=88	=88
2C	-su-	2c	-su-	1r	.	2e	-su-	1g	mi	1r	.
2BBnX	-mi e	2d	-mi e	.	.	2g	-mi e	.	.	.	.
=89	=89	=89	=89	=89	=89	=89	=89	=89	=89	=89	=89
[1C	strug-	[1c	strug-	2r	.	2g	strug-	2e	con-	2r	.
.	.	.	.	[2E	mi	2e	-gi,	[2g	-su-	[2cc	mi
=90	=90	=90	=90	=90	=90	=90	=90	=90	=90	=90	=90
1C_	.	1c_	.	2E]	.	2g	mi	2g]	.	2cc]	.
.	.	.	.	2F	con-	2f	con-	2cc	-mi e	2a	con-
=91	=91	=91	=91	=91	=91	=91	=91	=91	=91	=91	=91
1C_	.	1c_	.	2G	-su-	2e	-su-	[1cc	strug-	2g	-su-
.	.	.	.	2A	-mi e	[2f	-mi e	.	.	2f	-mi e
=92	=92	=92	=92	=92	=92	=92	=92	=92	=92	=92	=92
1C]	.	1c]	.	1G	strug-	2f]	.	1cc]	.	1g	strug-
.	.	.	.	.	.	2e	strug-	.	.	.	.
=93	=93	=93	=93	=93	=93	=93	=93	=93	=93	=93	=93
00FFl	-ge.	00Al	-gi.	00Fl	-gi.	00fl	-gi.	00ccl	-gi.	00al	-gi.
==	==	==	==	==	==	==	==	==	==	==	==
*-	*-	*-	*-	*-	*-	*-	*-	*-	*-	*-	*-
!!!system-decoration: [*]
!!!RDF**kern: i = editorial accidental
!!!RDF**kern: l = terminal long
!!!ENC: Emiliano Ricciardi
!!!END: 2019
!!!EED: Coluzzi, Seth
!!!EEV: 2019/04/21
!!!YEC: Copyright 2018 Emiliano Ricciardi, All Rights Reserved
!!!ONB: Translated from MusicXML on 2019/04/21 and edited by Craig Stuart Sapp
!!@@BEGIN:	VERSEDATA
!!@SOLERTI:	248
!!@CATALOGNUM:	Trm0248
!!@LAST_MODIFIED: 2020/07/12
!!@ATTRIBUTION: 	Not secure
!!@TITLE:		Vita de la mia vita
!!@GENRE:		madrigale
!!@MANUSRC:	M<sub>7</sub>
!!@PRINTSRC:	27, 70, 141, 166, 169
!!@@BEGIN:	VERSES
!!@ABOUTIT:	[TIRSI E CLORI]
!!@ABOUTEN:	[THYRSIS AND LYCORIS]
!!@EDITOR:	Solerti, Angelo
!!@EDITION_TITLE: Le Rime di Torquato Tasso
!!@EDITION_LOC:	Bologna
!!@EDITION_PUB:	Romagnoli-Dall’Acqua
!!@EDITION_DATE:  1898-1902
!!@EDITION_VOL:	2
!!@EDITION_PAGE:  336
!!@TRANSLATOR:	Emiliano Ricciardi and Amyrose McCue Gill
!!@VERSE:
!!	Vita de la mia vita,
!!	Tu mi somigli pallidetta oliva
!!	O rosa scolorita;
!!	Né di beltà sei priva,
!!	Ma in ogni aspetto tu mi sei gradita,
!!	O lusinghera o schiva;
!!	E se mi segui o fuggi
!!	Soavemente mi consumi e struggi.
!!@TVERSE:
!!	Life of my life,
!!	You resemble me, barely pale olive,
!!	O pallid rose;
!!	Nor of beauty are you devoid
!!	But in every aspect you are pleasing to me,
!!	Whether indulging or indifferent;
!!	And if you follow or flee me
!!	Pleasurably you consume  and exhaust me.
!!@@END:		VERSES
!!@OTHER_CRIT_ED:   None
!!@ATTRIBUTION_ABOUT:	Not secure
!!		<br>
!!		This poem survives attributed to Tasso only in a literary print that was not supervised by the author, <i>Delle rime et prose del Sig. Torquato Tasso</i>
!!(Venetia: Giulio Vasalini, 1586) and in reprints thereof.
!!@DATING:	In or before 1586
!!@DEDICATEE:
!!@COMMENTARY:
!!@@END:		VERSEDATA
!!@@BEGIN:	SETTING
!!@CATALOGNUM:	Trm0248a
!!@RIMETITLE:	Vita de la mia vita
!!@SOLERTI:	248
!!@COMPOSER:	Marenzio, Luca
!!@PRINCEPSTITLE:	Il secondo libro de madrigali a sei voci
!!@PRINCEPSLOC:	Venetia
!!@NORMLOC:	Venice
!!@NORMPUB:	Angelo Gardano
!!@NORMPUBSHORT:	Gardano
!!@PRINCEPSPUB:	Gardano
!!@PRINCEPSYEAR:	1584
!!@PRINCEPSRISM:	M 504
!!@REPRINTS:	M0505, M0506, M0524, M1594-14
!!@OVOICES:	6
!!@EXTANTVOICES:	6
!!@PARTBOOKS:	
!!@EXTPARTBOOKS:	
!!@OCLEFS:	C1,C1,C3,C4,C4,F4
!!@OMENSURATION:	Cut-C
!!@OKEYSIG:	b-
!!@FINAL:	F
!!@TIMPEDITOR:	Coluzzi, Seth
!!@NOTE:		
!!@@END:		SETTING
